X: 24182
T: Lord Galway's Lamentation
R: waltz
M: 3/4
K: Amajor
|:EA|"B"B2B2 AB/c/|"B"B3 BAB|"C#m"c2e2 c/d/c/B/|"A"TA3 AAG|
F2B2 AB/c/|TB3 BAF|E>FA FEC|B,4:|
|:CE|F>G FE CE|F2B,2CE|F>G FE CE|TF4 EF|
A>B AF EF|A2C2 EF|A>B AF EF|TA3 cdc|
B2B2 dc|B3 cAF|E>FA FEC|B,4:|

